silx/resources/gui/icons/item-object.svg

<?xml version="1.0" encoding="UTF-8"?>
<svg xmlns="http://www.w3.org/2000/svg" xmlns:xlink="http://www.w3.org/1999/xlink" width="32" height="32" viewBox="0 0 32 32" version="1.1">
<g id="surface1">
<path style=" stroke:none;fill-rule:nonzero;fill:rgb(0%,20.392157%,100%);fill-opacity:1;" d="M 13.617188 8.78125 L 14.296875 4.742188 L 18.300781 4.78125 L 18.777344 8.742188 Z M 13.617188 8.78125 "/>
<path style=" stroke:none;fill-rule:nonzero;fill:rgb(0%,20.392157%,100%);fill-opacity:1;" d="M 9.226562 12.589844 L 6.851562 9.253906 L 9.707031 6.453125 L 12.847656 8.914062 Z M 9.226562 12.589844 "/>
<path style=" stroke:none;fill-rule:nonzero;fill:rgb(0%,20.392157%,100%);fill-opacity:1;" d="M 8.785156 18.410156 L 4.742188 17.730469 L 4.785156 13.730469 L 8.742188 13.25 Z M 8.785156 18.410156 "/>
<path style=" stroke:none;fill-rule:nonzero;fill:rgb(0%,20.392157%,100%);fill-opacity:1;" d="M 12.59375 22.800781 L 9.253906 25.175781 L 6.453125 22.320312 L 8.914062 19.179688 Z M 12.59375 22.800781 "/>
<path style=" stroke:none;fill-rule:nonzero;fill:rgb(0%,20.392157%,100%);fill-opacity:1;" d="M 18.382812 23.226562 L 17.703125 27.265625 L 13.703125 27.226562 L 13.222656 23.265625 Z M 18.382812 23.226562 "/>
<path style=" stroke:none;fill-rule:nonzero;fill:rgb(0%,20.392157%,100%);fill-opacity:1;" d="M 22.773438 19.417969 L 25.148438 22.753906 L 22.292969 25.554688 L 19.152344 23.09375 Z M 22.773438 19.417969 "/>
<path style=" stroke:none;fill-rule:nonzero;fill:rgb(0%,20.392157%,100%);fill-opacity:1;" d="M 23.21875 13.597656 L 27.257812 14.277344 L 27.21875 18.277344 L 23.257812 18.757812 Z M 23.21875 13.597656 "/>
<path style=" stroke:none;fill-rule:nonzero;fill:rgb(0%,20.392157%,100%);fill-opacity:1;" d="M 19.410156 9.207031 L 22.746094 6.832031 L 25.546875 9.6875 L 23.085938 12.828125 Z M 19.410156 9.207031 "/>
<path style=" stroke:none;fill-rule:nonzero;fill:rgb(0%,20.392157%,100%);fill-opacity:1;" d="M 16 7.960938 C 11.5625 7.960938 7.960938 11.5625 7.960938 16 C 7.960938 20.4375 11.5625 24.039062 16 24.039062 C 20.4375 24.039062 24.039062 20.4375 24.039062 16 C 24.039062 11.5625 20.4375 7.960938 16 7.960938 Z M 16 13.128906 C 17.585938 13.128906 18.871094 14.414062 18.871094 16 C 18.871094 17.585938 17.585938 18.867188 16 18.867188 C 14.414062 18.867188 13.128906 17.585938 13.128906 16 C 13.128906 14.414062 14.414062 13.128906 16 13.128906 Z M 16 13.128906 "/>
</g>
</svg>

<?xml version="1.0" encoding="UTF-8"?>
<svg version="1.1" viewBox="0 0 32 32" xmlns="http://www.w3.org/2000/svg">
 <g fill="#0034ff">
  <path d="m13.617 8.7812l0.67969-4.0391 4.0039 0.039062 0.47656 3.9609z"/>
  <path d="m9.2266 12.59l-2.375-3.3359 2.8555-2.8008 3.1406 2.4609z"/>
  <path d="m8.7852 18.41l-4.043-0.67969 0.042968-4 3.957-0.48047z"/>
  <path d="m12.594 22.801l-3.3398 2.375-2.8008-2.8555 2.4609-3.1406z"/>
  <path d="m18.383 23.227l-0.67969 4.0391-4-0.039063-0.48047-3.9609z"/>
  <path d="m22.773 19.418l2.375 3.3359-2.8555 2.8008-3.1406-2.4609z"/>
  <path d="m23.219 13.598l4.0391 0.67969-0.039062 4-3.9609 0.48047z"/>
  <path d="m19.41 9.207l3.3359-2.375 2.8008 2.8555-2.4609 3.1406z"/>
  <path d="m16 7.9609c-4.4375 0-8.0391 3.6016-8.0391 8.0391s3.6016 8.0391 8.0391 8.0391 8.0391-3.6016 8.0391-8.0391-3.6016-8.0391-8.0391-8.0391zm0 5.168c1.5859 0 2.8711 1.2852 2.8711 2.8711s-1.2852 2.8672-2.8711 2.8672-2.8711-1.2812-2.8711-2.8672 1.2852-2.8711 2.8711-2.8711z"/>
 </g>
</svg>
